X:75
T: IK WEET MY EINE SCHONE MAGT
N: E1090A
O: Europa, Mitteleuropa, Deutschland, Norddeutschland, Ditmarschen
R: Wunsch - Lied, Luegen - Maerchen
M: 6/4
L: 1/4
K: C
C | C2CC2C | G2GG2
G | F2GA2G | G2FE2z |
FFFG2E | F2EG2E |
FFFG2E | D3C2

@@@ Tune index: 4759
